X: 1
T: Elaine's Hambo
M:3/4
L:1/8
R:Hambo
C:Andrea Hoag
N:Rodney Miller's Airdance, GMM2003
N:Transcribed by Bruce Thomson
N:This transcription had all the bar lines and endings wrong.  [jc]
K:A
|:\
  "A"c2B A2G A2G | F2E DC2 D3 | "E"B,2C D2E F3 | FG2 "A"E3 E3 |
"F#m"c2B A2G A2G | F2E DC2 D3 | "E"E2F G2A B2c | d3 e3 efg |
"A"a2e c2A "D"d2c | df2 "E"B2A G2A | B2c d2d "A"dBG | A2z A6 |]
|:\
"D"f2e d2e f2g"A" | a2e cec A2c | "E"B2A G2A B2G | "A"A3 c3 e3 |
"D"f2e d2e f2g"A"   a2e cec A2c | "E"B2A G2A B2G | "A"A2z A6 :|

%%sep 1 1 500

